symbols/web/airline_seat_legroom_reduced/materialsymbolsrounded/airline_seat_legroom_reduced_wght300grad200_24px.svg

<svg xmlns="http://www.w3.org/2000/svg" height="24" width="24"><path d="M15.15 21.175q-.85 0-1.35-.75-.5-.75-.325-1.55L14.65 13.9H7.025q-.875 0-1.487-.613-.613-.612-.613-1.487V2.65h6.2v6h5.65q.875 0 1.488.625.612.625.612 1.475l-2.025 7.225h1.5q.7 0 1.125.413.425.412.425 1.162 0 .7-.4 1.162-.4.463-1.1.463ZM4.25 17.05q-1.05 0-1.762-.713-.713-.712-.713-1.737V3.725q0-.45.325-.763.325-.312.75-.312.45 0 .763.312.312.313.312.763V14.6q0 .1.1.2t.225.1h6.35q.45 0 .763.313.312.312.312.762t-.312.763q-.313.312-.763.312Z"/></svg>

<svg xmlns="http://www.w3.org/2000/svg" height="24" width="24"><path d="M15.15 21.175Q14.3 21.175 13.8 20.425Q13.3 19.675 13.475 18.875L14.65 13.9H7.025Q6.15 13.9 5.538 13.287Q4.925 12.675 4.925 11.8V2.65H11.125V8.65H16.775Q17.65 8.65 18.263 9.275Q18.875 9.9 18.875 10.75L16.85 17.975H18.35Q19.05 17.975 19.475 18.388Q19.9 18.8 19.9 19.55Q19.9 20.25 19.5 20.712Q19.1 21.175 18.4 21.175ZM4.25 17.05Q3.2 17.05 2.488 16.337Q1.775 15.625 1.775 14.6V3.725Q1.775 3.275 2.1 2.962Q2.425 2.65 2.85 2.65Q3.3 2.65 3.613 2.962Q3.925 3.275 3.925 3.725V14.6Q3.925 14.7 4.025 14.8Q4.125 14.9 4.25 14.9H10.6Q11.05 14.9 11.363 15.213Q11.675 15.525 11.675 15.975Q11.675 16.425 11.363 16.738Q11.05 17.05 10.6 17.05Z"/></svg>
